svg/barcode.svg

<?xml version="1.0" encoding="UTF-8" standalone="no"?>
<svg
   xmlns:dc="http://purl.org/dc/elements/1.1/"
   xmlns:cc="http://creativecommons.org/ns#"
   xmlns:rdf="http://www.w3.org/1999/02/22-rdf-syntax-ns#"
   xmlns:svg="http://www.w3.org/2000/svg"
   xmlns="http://www.w3.org/2000/svg"
   viewBox="0 0 192 192"
   height="192"
   width="192"
   id="svg7176"
   version="1.1">
  <metadata
     id="metadata7182">
    <rdf:RDF>
      <cc:Work
         rdf:about="">
        <dc:format>image/svg+xml</dc:format>
        <dc:type
           rdf:resource="http://purl.org/dc/dcmitype/StillImage" />
        <dc:title></dc:title>
      </cc:Work>
    </rdf:RDF>
  </metadata>
  <defs
     id="defs7180" />
  <path
     id="rect7729"
     d="M 15.236328 32 C 11.244222 32 8.03125 35.212972 8.03125 39.205078 L 8.03125 152.79492 C 8.03125 156.78703 11.244222 160 15.236328 160 L 176.76367 160 C 180.75578 160 183.96875 156.78703 183.96875 152.79492 L 183.96875 39.205078 C 183.96875 35.212972 180.75578 32 176.76367 32 L 15.236328 32 z M 22.335938 43.861328 L 28.443359 43.861328 C 30.105359 43.861328 31.443359 45.199328 31.443359 46.861328 L 31.443359 145.13867 C 31.443359 146.80067 30.105359 148.13867 28.443359 148.13867 L 22.335938 148.13867 C 20.673938 148.13867 19.335938 146.80067 19.335938 145.13867 L 19.335938 46.861328 C 19.335938 45.199328 20.673938 43.861328 22.335938 43.861328 z M 42.001953 43.861328 L 55.523438 43.861328 C 57.185437 43.861328 58.523436 45.199328 58.523438 46.861328 L 58.523438 145.13867 C 58.523438 146.80067 57.185437 148.13867 55.523438 148.13867 L 42.001953 148.13867 C 40.339953 148.13867 39.001953 146.80067 39.001953 145.13867 L 39.001953 46.861328 C 39.001953 45.199328 40.339953 43.861328 42.001953 43.861328 z M 69.080078 43.861328 L 79.388672 43.861328 C 81.050672 43.861328 82.388672 45.199328 82.388672 46.861328 L 82.388672 145.13867 C 82.388672 146.80067 81.050672 148.13867 79.388672 148.13867 L 69.080078 148.13867 C 67.418078 148.13867 66.080078 146.80067 66.080078 145.13867 L 66.080078 46.861328 C 66.080078 45.199328 67.418078 43.861328 69.080078 43.861328 z M 92.945312 43.861328 L 99.054688 43.861328 C 100.71669 43.861328 102.05469 45.199328 102.05469 46.861328 L 102.05469 145.13867 C 102.05469 146.80067 100.71669 148.13867 99.054688 148.13867 L 92.945312 148.13867 C 91.283312 148.13867 89.945312 146.80067 89.945312 145.13867 L 89.945312 46.861328 C 89.945312 45.199328 91.283315 43.861328 92.945312 43.861328 z M 112.61133 43.861328 L 122.91992 43.861328 C 124.58192 43.861328 125.91992 45.199328 125.91992 46.861328 L 125.91992 145.13867 C 125.91992 146.80067 124.58192 148.13867 122.91992 148.13867 L 112.61133 148.13867 C 110.94933 148.13867 109.61133 146.80067 109.61133 145.13867 L 109.61133 46.861328 C 109.61133 45.199328 110.94933 43.861328 112.61133 43.861328 z M 136.47656 43.861328 L 142.58594 43.861328 C 144.24794 43.861328 145.58594 45.199328 145.58594 46.861328 L 145.58594 145.13867 C 145.58594 146.80067 144.24794 148.13867 142.58594 148.13867 L 136.47656 148.13867 C 134.81456 148.13867 133.47656 146.80067 133.47656 145.13867 L 133.47656 46.861328 C 133.47656 45.199328 134.81456 43.861328 136.47656 43.861328 z M 156.14258 43.861328 L 169.66406 43.861328 C 171.32606 43.861328 172.66406 45.199328 172.66406 46.861328 L 172.66406 145.13867 C 172.66406 146.80067 171.32606 148.13867 169.66406 148.13867 L 156.14258 148.13867 C 154.48058 148.13867 153.14258 146.80067 153.14258 145.13867 L 153.14258 46.861328 C 153.14258 45.199328 154.48058 43.861328 156.14258 43.861328 z "
     style="opacity:1;fill:#ffffff;fill-opacity:1;stroke:none;stroke-width:0.9750818;stroke-opacity:1" />
</svg>

<svg xmlns="http://www.w3.org/2000/svg" viewBox="0 0 192 192" height="192" width="192">
    <path d="M15.236 32a7.19 7.19 0 0 0-7.205 7.205v113.59A7.19 7.19 0 0 0 15.24 160h161.528a7.19 7.19 0 0 0 7.205-7.205V39.205A7.19 7.19 0 0 0 176.764 32H15.236zm7.1 11.86h6.107c1.662 0 3 1.34 3 3v98.28c0 1.66-1.338 3-3 3h-6.107c-1.662 0-3-1.34-3-3V46.86c0-1.66 1.338-3 3-3zm19.666 0h13.52c1.663 0 3 1.34 3 3v98.28c0 1.66-1.337 3-3 3h-13.52c-1.662 0-3-1.34-3-3V46.86c0-1.66 1.338-3 3-3zm27.078 0h10.31c1.66 0 3 1.34 3 3v98.28c0 1.66-1.34 3-3 3H69.08c-1.662 0-3-1.34-3-3V46.86c0-1.66 1.338-3 3-3zm23.865 0h6.11c1.662 0 3 1.34 3 3v98.28c0 1.66-1.338 3-3 3h-6.11c-1.662 0-3-1.34-3-3V46.86c0-1.66 1.338-3 3-3zm19.666 0h10.31c1.664 0 3 1.34 3 3v98.28c0 1.66-1.336 3-3 3h-10.31c-1.66 0-3-1.34-3-3V46.86c0-1.66 1.34-3 3-3zm23.87 0h6.11c1.66 0 3 1.34 3 3v98.28c0 1.66-1.34 3-3 3h-6.11c-1.663 0-3-1.34-3-3V46.86c0-1.66 1.337-3 3-3zm19.665 0h13.52c1.663 0 3 1.34 3 3v98.28c0 1.66-1.337 3-3 3h-13.52c-1.662 0-3-1.34-3-3V46.86c0-1.66 1.338-3 3-3z" fill="#fff"/>
</svg>
